X:1
T:Calvert, 98.98
T:Calvert, 98.98
T:R. J. C., 1910
T:Public Domain Courtesy of the Cyber Hymnal™
C:R. J. C., 1910
Z:Public Domain
Z:Courtesy of the Cyber Hymnal™
%%score ( 1 2 ) ( 3 4 )
L:1/8
Q:1/4=90
M:6/8
K:G
V:1 treble 
V:2 treble 
V:3 bass 
V:4 bass 
V:1
 [B,G] | [DG][CA][B,B] [CE][CF][DG] | (A2 F) D2 [DE] | [^CG][CF][CE] [CG][CF][CE] | %4
 A3- [DA]2 [D=c] | [DB][DF][DG] [Cc][D^G][EA] | ([Dd]2 [^DB]) [EG]2 [^CA] | %7
 [=DB]D[GB] [Fc][FB][FA] | [DG]3- [DG]2 |] %9
V:2
 x | x6 | D3 D2 x | x6 | D2 ^C x3 | x6 | x6 | x D x4 | x5 |] %9
V:3
 [G,,D,] | [B,,G,][A,,F,][G,,G,] [C,G,][A,,A,][B,,G,] | ([D,F,]2 [C,A,]) [B,,G,]2 [_B,,G,] | %3
 [A,,E,][A,,F,][A,,G,] [B,,=B,]A,[G,A,] | ([F,A,]2 [E,G,] [D,F,]2) [F,A,] | %5
 G,[D,A,][B,,G,] [A,,E,][B,,E,][C,E,] | (F,2 B,) [E,B,]2 [_E,G,] | %7
 [D,G,][D,B,][D,D] [D,D][D,C][D,C] | [G,,G,B,]3- [G,,G,B,]2 |] %9
V:4
 x | x6 | x6 | x4 A, x | x6 | G, x5 | B,,3 x3 | x6 | x5 |] %9

